resources/haticons/SVG/hatenabookmark.svg

<!-- Generated by IcoMoon.io -->
<svg version="1.1" xmlns="http://www.w3.org/2000/svg" width="24" height="24" viewBox="0 0 24 24">
<title>hatenabookmark</title>
<path fill="#00a4de" d="M20.47 0c1.95 0 3.53 1.58 3.53 3.53v16.94c0 1.95-1.58 3.53-3.53 3.53h-16.94c-1.95 0-3.53-1.58-3.53-3.53v-16.94c0-1.95 1.58-3.53 3.53-3.53zM16.765 14.47c-0.78 0-1.41 0.63-1.41 1.41s0.63 1.414 1.41 1.414 1.41-0.645 1.41-1.425-0.63-1.41-1.41-1.399zM8.61 17.247c1.2 0 2.056-0.042 2.58-0.12 0.526-0.084 0.976-0.222 1.32-0.412 0.45-0.232 0.78-0.564 1.020-0.99s0.36-0.915 0.36-1.48c0-0.78-0.21-1.403-0.63-1.87-0.42-0.48-0.99-0.734-1.74-0.794 0.66-0.18 1.156-0.45 1.456-0.81 0.315-0.344 0.465-0.824 0.465-1.424 0-0.48-0.103-0.885-0.3-1.26-0.21-0.36-0.493-0.645-0.883-0.87-0.345-0.195-0.735-0.315-1.215-0.405-0.464-0.074-1.29-0.12-2.474-0.12h-2.915v10.486h2.956zM9.346 13.062c0.705 0 1.185 0.088 1.44 0.262 0.27 0.18 0.39 0.495 0.39 0.93 0 0.405-0.135 0.69-0.42 0.855-0.27 0.18-0.765 0.254-1.44 0.254h-1.006v-2.297zM18.002 13.768v-7.060h-2.46v7.060zM8.925 9.080c0.71 0 1.185 0.080 1.432 0.24 0.245 0.16 0.367 0.435 0.367 0.83 0 0.38-0.13 0.646-0.39 0.804-0.265 0.154-0.747 0.232-1.452 0.232h-0.57v-2.106z"></path>
</svg>

<svg xmlns="http://www.w3.org/2000/svg" width="24" height="24"><path fill="#00a4de" d="M20.47 0A3.53 3.53 0 0 1 24 3.53v16.94A3.53 3.53 0 0 1 20.47 24H3.53A3.53 3.53 0 0 1 0 20.47V3.53A3.53 3.53 0 0 1 3.53 0zm-3.705 14.47a1.412 1.412 0 1 0 0 2.824c.78 0 1.41-.645 1.41-1.425s-.63-1.41-1.41-1.399zM8.61 17.247c1.2 0 2.056-.042 2.58-.12.526-.084.976-.222 1.32-.412.45-.232.78-.564 1.02-.99s.36-.915.36-1.48c0-.78-.21-1.403-.63-1.87-.42-.48-.99-.734-1.74-.794.66-.18 1.156-.45 1.456-.81.315-.344.465-.824.465-1.424 0-.48-.103-.885-.3-1.26a2.343 2.343 0 0 0-.883-.87c-.345-.195-.735-.315-1.215-.405-.464-.074-1.29-.12-2.474-.12H5.654v10.486H8.61zm.736-4.185c.705 0 1.185.088 1.44.262.27.18.39.495.39.93 0 .405-.135.69-.42.855-.27.18-.765.254-1.44.254H8.31v-2.297zm8.656.706v-7.06h-2.46v7.06zM8.925 9.08c.71 0 1.185.08 1.432.24.245.16.367.435.367.83 0 .38-.13.646-.39.804-.265.154-.747.232-1.452.232h-.57V9.08z"/></svg>
